images/icons/social-twitter.svg

<svg width="16" height="16" viewBox="0 0 16 16" xmlns="http://www.w3.org/2000/svg"
  aria-hidden="true" focusable="false">
  <g fill-rule="evenodd">
    <rect fill="none" x="0" y="0" width="16" height="16"></rect>
    <path fill-rule="evenodd" clip-rule="evenodd"
      d="M15.969 3.049C15.379 3.308 14.749 3.485 14.085 3.565C14.769 3.15393 15.2812 2.50925 15.527 1.75C14.893 2.12 14.191 2.39 13.443 2.54C12.9496 2.01194 12.2956 1.66164 11.5826 1.5435C10.8696 1.42536 10.1376 1.54601 9.50021 1.88669C8.86285 2.22738 8.35585 2.76903 8.05798 3.4275C7.76011 4.08596 7.68805 4.82437 7.853 5.528C6.54934 5.4651 5.27356 5.12822 4.1088 4.53929C2.94405 3.95037 1.91646 3.12262 1.093 2.11C0.799182 2.60996 0.646107 3.1801 0.65 3.76C0.65 4.9 1.23 5.902 2.109 6.49C1.58841 6.47355 1.07928 6.33298 0.624 6.08V6.12C0.623673 6.8775 0.885386 7.61179 1.36475 8.19832C1.84411 8.78485 2.5116 9.18751 3.254 9.338C2.77311 9.46695 2.26942 9.48643 1.78 9.395C1.99077 10.0469 2.39976 10.6168 2.94992 11.0252C3.50008 11.4335 4.16397 11.66 4.849 11.673C3.68837 12.5837 2.25529 13.0779 0.78 13.076C0.52 13.076 0.26 13.061 0 13.032C1.50388 13.9946 3.25241 14.5055 5.038 14.504C11.074 14.504 14.37 9.507 14.37 5.181C14.37 5.041 14.37 4.901 14.36 4.761C15 4.301 15.56 3.721 16 3.061L15.969 3.049Z"
      fill="currentColor" />
  </g>
</svg>

<svg xmlns="http://www.w3.org/2000/svg" width="16" height="16" viewBox="0 0 16 16" aria-hidden="true" focusable="false"><g fill-rule="evenodd"><rect fill="none" stroke="none" x="0" y="0" width="16" height="16"></rect><path fill="currentColor" stroke="none" d="M15.969 3.049c-.59.259-1.22.436-1.884.516a3.305 3.305 0 0 0 1.442-1.815c-.634.37-1.336.64-2.084.79a3.28 3.28 0 0 0-5.59 2.988 9.29 9.29 0 0 1-6.76-3.418A3.214 3.214 0 0 0 .65 3.76c0 1.14.58 2.142 1.459 2.73a3.27 3.27 0 0 1-1.485-.41v.04a3.282 3.282 0 0 0 2.63 3.218 3.33 3.33 0 0 1-1.474.057 3.291 3.291 0 0 0 3.069 2.278A6.578 6.578 0 0 1 .78 13.076c-.26 0-.52-.015-.78-.044a9.33 9.33 0 0 0 5.038 1.472c6.036 0 9.332-4.997 9.332-9.323 0-.14 0-.28-.01-.42.64-.46 1.2-1.04 1.64-1.7l-.031-.012z"></path></g></svg>
